public/icons/linkedin.svg

<svg width="42" height="42" viewBox="0 0 42 42" fill="none" xmlns="http://www.w3.org/2000/svg">
<path d="M35.8656 35.8438H29.6672V26.2323C29.6672 23.9404 29.6259 20.9899 26.4433 20.9899C23.215 20.9899 22.721 23.4871 22.721 26.0654V35.8432H16.5225V16.078H22.473V18.7791H22.5564C23.1519 17.771 24.0124 16.9416 25.0463 16.3794C26.0802 15.8171 27.2487 15.5431 28.4275 15.5864C34.7099 15.5864 35.8682 19.678 35.8682 25.001L35.8656 35.8438ZM9.52858 13.3763C8.81715 13.3764 8.12164 13.1676 7.53004 12.7764C6.93843 12.3851 6.47732 11.829 6.20495 11.1782C5.93258 10.5274 5.8612 9.81133 5.99987 9.12042C6.13854 8.42951 6.48102 7.79482 6.98399 7.29663C7.48695 6.79844 8.12783 6.45911 8.82556 6.32156C9.5233 6.18401 10.2465 6.25441 10.9039 6.52387C11.5612 6.79332 12.1231 7.24972 12.5184 7.83536C12.9138 8.421 13.1249 9.10957 13.125 9.814C13.1251 10.2817 13.0321 10.7449 12.8514 11.177C12.6707 11.6092 12.4059 12.0019 12.0719 12.3326C11.738 12.6634 11.3414 12.9258 10.9051 13.1049C10.4687 13.284 10.0009 13.3762 9.52858 13.3763ZM12.6278 35.8438H6.42288V16.078H12.6278V35.8438ZM38.9558 0.553481H3.30817C2.49906 0.54444 1.7194 0.85383 1.14056 1.41366C0.561723 1.97349 0.231066 2.73797 0.221191 3.53909V38.9822C0.230728 39.7837 0.561191 40.5487 1.14001 41.1091C1.71883 41.6696 2.49866 41.9796 3.30817 41.971H38.9558C39.767 41.9811 40.549 41.672 41.1301 41.1116C41.7112 40.5512 42.0438 39.7853 42.0551 38.9822V3.53654C42.0435 2.73382 41.7106 1.96848 41.1295 1.40866C40.5484 0.848841 39.7666 0.540336 38.9558 0.550923" fill="#0A66C2"/>
</svg>

<svg xmlns="http://www.w3.org/2000/svg" width="42" height="42" fill="none"><path fill="#0A66C2" d="M35.866 35.844h-6.199v-9.612c0-2.292-.041-5.242-3.224-5.242-3.228 0-3.722 2.497-3.722 5.075v9.778h-6.198V16.078h5.95v2.701h.083a6.5 6.5 0 0 1 2.49-2.4 6.6 6.6 0 0 1 3.381-.793c6.283 0 7.441 4.092 7.441 9.415zM9.529 13.376a3.62 3.62 0 0 1-1.999-.6 3.57 3.57 0 0 1-1.325-1.598 3.53 3.53 0 0 1 .779-3.881 3.63 3.63 0 0 1 3.92-.773 3.6 3.6 0 0 1 1.614 1.311 3.536 3.536 0 0 1-.446 4.498 3.6 3.6 0 0 1-2.543 1.043m3.099 22.468H6.423V16.078h6.205zM38.956.554H3.308c-.809-.01-1.589.3-2.167.86a3 3 0 0 0-.92 2.125v35.443c.01.802.34 1.567.919 2.127a3.07 3.07 0 0 0 2.168.862h35.648a3.08 3.08 0 0 0 2.174-.86c.581-.56.914-1.326.925-2.129V3.537a3.02 3.02 0 0 0-.925-2.128A3.08 3.08 0 0 0 38.956.55"/></svg>
